svgs/notion.svg

<svg width="24" height="24" viewBox="0 0 24 24" fill="none" xmlns="http://www.w3.org/2000/svg">
<path fill-rule="evenodd" clip-rule="evenodd" d="M5.70829 5.50642C6.33034 6.01181 6.5637 5.97325 7.73184 5.89531L18.7442 5.23407C18.9778 5.23407 18.7836 5.00106 18.7057 4.96234L16.8768 3.64017C16.5263 3.3681 16.0594 3.05652 15.1646 3.13446L4.50128 3.91221C4.11238 3.95077 4.03472 4.14521 4.18958 4.30106L5.70829 5.50642ZM6.36945 8.07286V19.6598C6.36945 20.2825 6.68064 20.5155 7.38103 20.477L19.4837 19.7767C20.1844 19.7382 20.2625 19.3098 20.2625 18.804V7.29476C20.2625 6.78972 20.0682 6.51736 19.6392 6.55624L6.99186 7.29476C6.5251 7.33398 6.36941 7.56746 6.36941 8.07286H6.36945ZM18.3171 8.6944C18.3947 9.0447 18.3171 9.39468 17.9662 9.43406L17.3831 9.55025V18.1045C16.8768 18.3766 16.4099 18.5322 16.0208 18.5322C15.398 18.5322 15.2419 18.3376 14.7754 17.7547L10.9611 11.7667V17.5602L12.1681 17.8326C12.1681 17.8326 12.1681 18.5322 11.1943 18.5322L8.5097 18.6879C8.43172 18.5322 8.5097 18.1437 8.78201 18.0658L9.48256 17.8717V10.2115L8.5099 10.1335C8.43187 9.78321 8.62616 9.27813 9.17138 9.23895L12.0513 9.04481L16.0208 15.1108V9.74466L15.0087 9.62851C14.9311 9.20027 15.2419 8.88932 15.6312 8.85076L18.3171 8.6944ZM3.60597 2.86242L14.6975 2.04561C16.0596 1.92879 16.41 2.00705 17.2661 2.62891L20.8067 5.11741C21.3909 5.54533 21.5856 5.66183 21.5856 6.12831V19.7767C21.5856 20.632 21.274 21.1379 20.1846 21.2153L7.30395 21.9931C6.48615 22.0321 6.09694 21.9156 5.66866 21.3709L3.06134 17.988C2.59419 17.3653 2.3999 16.8994 2.3999 16.3544V4.22284C2.3999 3.52335 2.7116 2.93986 3.60597 2.86242V2.86242Z" fill="black"/>
</svg>

<svg xmlns="http://www.w3.org/2000/svg" width="24" height="24" fill="none" viewBox="0 0 24 24"><path fill="#000" fill-rule="evenodd" d="M5.708 5.506c.622.506.856.467 2.024.39l11.012-.662c.234 0 .04-.233-.038-.272l-1.83-1.322c-.35-.272-.817-.583-1.711-.506L4.5 3.912c-.389.039-.466.233-.311.39l1.518 1.204m.661 2.567V19.66c0 .622.312.855 1.012.817l12.103-.7c.7-.039.778-.467.778-.973V7.294c0-.504-.194-.777-.623-.738l-12.647.739c-.467.039-.623.272-.623.778m11.948.621c.078.35 0 .7-.35.74l-.584.116v8.555c-.506.272-.973.427-1.362.427-.623 0-.78-.194-1.246-.777l-3.814-5.988v5.793l1.207.273s0 .7-.974.7l-2.684.155c-.078-.156 0-.544.272-.622l.7-.194v-7.66l-.972-.079c-.078-.35.116-.855.661-.894l2.88-.194 3.97 6.066V9.745l-1.012-.116c-.078-.429.233-.74.622-.778l2.686-.157M3.606 2.862l11.092-.816c1.362-.117 1.712-.039 2.568.583l3.54 2.488c.585.428.78.545.78 1.011v13.649c0 .855-.312 1.36-1.401 1.438l-12.881.778c-.818.04-1.207-.077-1.635-.622L3.06 17.988c-.467-.623-.661-1.089-.661-1.634V4.223c0-.7.312-1.283 1.206-1.36Z" clip-rule="evenodd"/></svg>
